X: 07108
T: SPENCER'S POLKA
C: Bob McQuillen 14 Apr 89
B: Bob's Note Book 7 #108
%R: polka
Z: 2019 John Chambers <jc:trillian.mit.edu>
M: C
L: 1/8
K: Em
B,D \
| "Em"EGAB GAGE | "D"D2B,2 "Bm"B,2B,D | "Em"EGAB     G2E2 | "D"D6 "Bm"B,D |\
| "Em"EGAG BAGE | "D"D2B,2 "Bm"D2B,D  | "Em"EGAB "B7"G2F2 | "Em"E6 :|
|: GB \
| "G"d2Bd edBG | "D"ABGE     D2GB  |  "G"d2Bd     eged  | "Em"B6 GB |\
| "G"d2Bd edBG | "D"ABGE "Bm"D2B,D | "Em"EGED "Bm"B,2D2 | "Em"E6 :|
%%begintext align
%% This tune is for a young
%% man named Spencer Nelson, who will probably
%% never hear it, but for the rest of the story you'll just
%% have to ask Frank and Dina Blad3. I will tell you that
%% you always get a wonderful dinner (what a treat!) at the
%% Space Needle Restaurant in Seattle, which is where we met Spencer.
%%endtext

%%sep 1 1 500

%%sep 1 1 500

